X: 31342
T: Paddy Mills' Fancy
R: reel
M: 4/4
K: Gmajor
AG|:DG~G2 G2AG|FGAB cABG|d3g fdcA|AGFA GFDG|
DG~G2 G2AG|FGAB cABG|(3dgd eg fdcA|1 AGFA G2 ~G2:|2 AGFA G4||
~g2dg gfdc|BG~G2 FGAB|cA~A2 dcAG|FGAB cABd|
~g2dg gfdc|BA~A2 dcAG|1 FGAF G3g:|2 FGAF G2||

